client/media/icons/_08_search.svg

<?xml version="1.0" encoding="UTF-8" standalone="no"?><!DOCTYPE svg PUBLIC "-//W3C//DTD SVG 1.1//EN" "http://www.w3.org/Graphics/SVG/1.1/DTD/svg11.dtd"><svg width="100%" height="100%" viewBox="0 0 48 48" version="1.1" xmlns="http://www.w3.org/2000/svg" xmlns:xlink="http://www.w3.org/1999/xlink" xml:space="preserve" xmlns:serif="http://www.serif.com/" style="fill-rule:evenodd;clip-rule:evenodd;stroke-linejoin:round;stroke-miterlimit:2;"><path d="M39.75,43.125l-13.45,-13.4c-0.967,0.767 -2.108,1.367 -3.425,1.8c-1.317,0.433 -2.742,0.65 -4.275,0.65c-3.833,-0 -7.083,-1.333 -9.75,-4c-2.667,-2.667 -4,-5.883 -4,-9.65c0,-3.767 1.333,-6.983 4,-9.65c2.667,-2.667 5.9,-4 9.7,-4c3.767,-0 6.975,1.333 9.625,4c2.65,2.667 3.975,5.883 3.975,9.65c0,1.5 -0.208,2.892 -0.625,4.175c-0.417,1.283 -1.042,2.492 -1.875,3.625l13.5,13.4l-3.4,3.4Zm-21.2,-15.65c2.5,-0 4.608,-0.875 6.325,-2.625c1.717,-1.75 2.575,-3.858 2.575,-6.325c0,-2.5 -0.858,-4.617 -2.575,-6.35c-1.717,-1.733 -3.825,-2.6 -6.325,-2.6c-2.5,-0 -4.625,0.867 -6.375,2.6c-1.75,1.733 -2.625,3.85 -2.625,6.35c0,2.467 0.875,4.575 2.625,6.325c1.75,1.75 3.875,2.625 6.375,2.625Z" style="fill-rule:nonzero;"/></svg>

<?xml version="1.0" encoding="UTF-8" standalone="no"?>
<!DOCTYPE svg PUBLIC "-//W3C//DTD SVG 1.1//EN" "http://www.w3.org/Graphics/SVG/1.1/DTD/svg11.dtd">
<svg width="100%" height="100%" viewBox="0 0 40 40" version="1.1" xmlns="http://www.w3.org/2000/svg" xmlns:xlink="http://www.w3.org/1999/xlink" xml:space="preserve" xmlns:serif="http://www.serif.com/" style="fill-rule:evenodd;clip-rule:evenodd;stroke-linejoin:round;stroke-miterlimit:2;">
    <g transform="matrix(1.04439,0,0,1.04575,-5.06527,-5.09804)">
        <path d="M39.75,43.125L26.3,29.725C25.333,30.492 24.192,31.092 22.875,31.525C21.558,31.958 20.133,32.175 18.6,32.175C14.767,32.175 11.517,30.842 8.85,28.175C6.183,25.508 4.85,22.292 4.85,18.525C4.85,14.758 6.183,11.542 8.85,8.875C11.517,6.208 14.75,4.875 18.55,4.875C22.317,4.875 25.525,6.208 28.175,8.875C30.825,11.542 32.15,14.758 32.15,18.525C32.15,20.025 31.942,21.417 31.525,22.7C31.108,23.983 30.483,25.192 29.65,26.325L43.15,39.725L39.75,43.125ZM18.55,27.475C21.05,27.475 23.158,26.6 24.875,24.85C26.592,23.1 27.45,20.992 27.45,18.525C27.45,16.025 26.592,13.908 24.875,12.175C23.158,10.442 21.05,9.575 18.55,9.575C16.05,9.575 13.925,10.442 12.175,12.175C10.425,13.908 9.55,16.025 9.55,18.525C9.55,20.992 10.425,23.1 12.175,24.85C13.925,26.6 16.05,27.475 18.55,27.475Z" style="fill-rule:nonzero;"/>
    </g>
</svg>
